X: 27413
T: Moirrey Ny Gainle
R: jig
M: 6/8
K: Dmajor
A|:d2A F2A|B2G E2G|A2F DEF|GFG ABc|
d2A FGA|B2G E2e|c2A B2c|d3d2:|
d|e2c A2e|f2d A2f|g2e f2d|e2c ABc|
d2A FGA|B2G E2e|c2A B2c|d3d2|

